X: 1
T: Katie's
M: 4/4
L: 1/8
R: reel
K: Gmaj
dcBA GABd|edce defa|gfgd edcB|c2Bc A2de|
dcBA GABd|edce defa|gfgd edBG|1 A2G2 G2de:|2 A2G2 G2GB||
AGFE DEFA|BGdG eGdG|cBAc BAGB|AGFE DEFG|
AGFE DEFA|BGdG eGdG|cBAc BAGB|A2G2 G2GB|
AGFE DEFA|BGdG eGdG|cBAc BAGB|AGFG AGFG|
AGFE DEFA|BGdG eGdG|cBAc BAGB|A2G2 G2de|
